IMB-X-Files/The-Ambassadors-Assets/661015512e72c8c3026507b5_﹟19.svg

<svg fill="none" height="104" viewBox="0 0 104 104" width="104" xmlns="http://www.w3.org/2000/svg"><path d="m20.4573 31.2181v-14.3127l74.8761-.0912-.1519 43.0902m-74.7242-28.6863 32.0898.1216-32.0898 18.5671m0-18.6887v18.6887m0 0-11.79055 6.8069m0 0 17.59465 10.2104m-17.59465-10.2104v20.2472l17.59465 10.2266m0-20.2634 44.0931-25.4348-.0912 18.4151m-44.0019 7.0197v20.2634m44.0019-27.2831h24.9182m-24.9182 0 .0073 1.6298m24.9109-1.6298v20.2631h-24.827l-.0839-18.6333m-44.0092 25.6533 44.0092-25.6533" stroke="#a88cf9" stroke-linecap="round" stroke-linejoin="round"/></svg>

<svg width="104" height="104" viewBox="0 0 104 104" fill="none" xmlns="http://www.w3.org/2000/svg">
    <path
        d="M20.4573 31.2181V16.9054L95.3334 16.8142L95.1815 59.9044M20.4573 31.2181L52.5471 31.3397L20.4573 49.9068M20.4573 31.2181V49.9068M20.4573 49.9068L8.66675 56.7137M8.66675 56.7137L26.2614 66.9241M8.66675 56.7137V76.9609L26.2614 87.1875M26.2614 66.9241L70.3545 41.4893L70.2633 59.9044M26.2614 66.9241V87.1875M70.2633 59.9044H95.1815M70.2633 59.9044L70.2706 61.5342M95.1815 59.9044V80.1675H70.3545L70.2706 61.5342M26.2614 87.1875L70.2706 61.5342"
        stroke="#A88CF9" stroke-linecap="round" stroke-linejoin="round" />
</svg>
